X: 9974
T: Devil's Delight, The
R: reel
M: 4/4
K: Amajor
fg|:aA ~A2 A2 ec|~A2 eA ceAc|dcBA cEAc|dFBA GBeg|
aA ~A2 A2 ec|~A2 eA ceAc|dcBA cdeg|1 fdec A2 fg:|2 fdec ~A3 d||
ceAf eAce|feca eAce|dfBb fBdB|GABc defg|
aA ~A2 cAEc|dcBA cEAc|dcBA cdeg|1 fdec ~A3 d:|2 fdec A2 fg:|

